brandFactory_export/2.Regular/Marcador_2Regular.svg

<?xml version="1.0" encoding="UTF-8"?>
<svg width="24px" height="24px" viewBox="0 0 24 24" version="1.1" xmlns="http://www.w3.org/2000/svg" xmlns:xlink="http://www.w3.org/1999/xlink">
    <title>2.Regular/Marcador_2Regular</title>
    <g id="Symbols" stroke="none" stroke-width="1" fill="none" fill-rule="evenodd">
        <g id="2.Regular/Marcador_2Regular" fill="#5CB615" fill-rule="nonzero">
            <path d="M12.405042,17.3310924 C12.8621849,17.3310924 13.312605,17.502521 13.6554622,17.8487395 L17.9176471,22.107563 C17.9546218,22.1310924 18.0554622,22.0941176 18.1058824,22.0672269 C18.1932773,22.0268908 18.2504202,21.9394958 18.2470588,21.8420168 L18.2470588,1.77478992 C18.2470588,1.63697479 18.1394958,1.52605042 18.0016807,1.52268908 L6.78151261,1.52268908 C6.64369748,1.52268908 6.53277311,1.6302521 6.53277311,1.76806723 L6.53277311,21.8420168 C6.53277311,21.9764706 6.62016807,22.0436975 6.67394958,22.0672269 C6.72773109,22.0941176 6.83193277,22.1277311 6.93613445,22.0436975 L11.1445378,17.8453782 C11.4840336,17.5159664 11.9344538,17.3310924 12.405042,17.3310924 M17.994958,23.6235294 C17.6151261,23.6235294 17.2386555,23.4991597 16.9193277,23.2537815 L12.5798319,18.9277311 C12.4789916,18.8268908 12.3210084,18.8302521 12.2168067,18.9344538 L7.93781513,23.189916 C7.32605042,23.6672269 6.61008403,23.7378151 5.99831933,23.4352941 C5.38991597,23.1361345 5.00672269,22.5176471 5.0100621,21.8420168 L5.0100621,1.77478992 C5.0100621,0.796638655 5.80336134,0 6.78151261,0 L18.0016807,0 C18.9764706,0 19.7731092,0.796638655 19.7731092,1.77815126 L19.7731092,21.8420168 C19.7731092,22.5243697 19.3932773,23.1327731 18.7815126,23.4352941 C18.5294118,23.5630252 18.2638655,23.6235294 17.994958,23.6235294" id="Marcador_2Regular"></path>
        </g>
    </g>
</svg>

<svg width="24" height="24" viewBox="0 0 24 24" xmlns="http://www.w3.org/2000/svg"><path d="M12.405 17.331c.457 0 .908.172 1.25.518l4.263 4.259c.037.023.137-.014.188-.04a.24.24 0 00.141-.226V1.775a.25.25 0 00-.245-.252H6.782a.245.245 0 00-.25.245v20.074c0 .134.088.202.142.225.054.027.158.06.262-.023l4.209-4.199c.339-.329.79-.514 1.26-.514m5.59 6.293a1.76 1.76 0 01-1.076-.37l-4.34-4.326a.253.253 0 00-.362.006l-4.28 4.256c-.61.477-1.327.548-1.939.245a1.766 1.766 0 01-.988-1.593V1.775C5.01.797 5.803 0 6.782 0h11.22c.974 0 1.771.797 1.771 1.778v20.064c0 .682-.38 1.29-.991 1.593a1.725 1.725 0 01-.787.189" fill="#5CB615" fill-rule="nonzero"/></svg>
